Simply-Green-Circles/scalable/apps/libreoffice-math.svg

<?xml version="1.0" encoding="UTF-8" standalone="no"?>
<svg
   xmlns:dc="http://purl.org/dc/elements/1.1/"
   xmlns:cc="http://creativecommons.org/ns#"
   xmlns:rdf="http://www.w3.org/1999/02/22-rdf-syntax-ns#"
   xmlns:svg="http://www.w3.org/2000/svg"
   xmlns="http://www.w3.org/2000/svg"
   xmlns:sodipodi="http://sodipodi.sourceforge.net/DTD/sodipodi-0.dtd"
   xmlns:inkscape="http://www.inkscape.org/namespaces/inkscape"
   width="48"
   height="48"
   viewBox="0 0 12.7 12.7"
   version="1.1"
   id="svg4"
   sodipodi:docname="libreoffice-math.svg"
   inkscape:version="0.92.4 (5da689c313, 2019-01-14)">
  <metadata
     id="metadata10">
    <rdf:RDF>
      <cc:Work
         rdf:about="">
        <dc:format>image/svg+xml</dc:format>
        <dc:type
           rdf:resource="http://purl.org/dc/dcmitype/StillImage" />
        <dc:title></dc:title>
      </cc:Work>
    </rdf:RDF>
  </metadata>
  <defs
     id="defs8" />
  <sodipodi:namedview
     pagecolor="#ffffff"
     bordercolor="#666666"
     borderopacity="1"
     objecttolerance="10"
     gridtolerance="10"
     guidetolerance="10"
     inkscape:pageopacity="0"
     inkscape:pageshadow="2"
     inkscape:window-width="1087"
     inkscape:window-height="480"
     id="namedview6"
     showgrid="false"
     inkscape:zoom="4.9166667"
     inkscape:cx="2.1355932"
     inkscape:cy="24"
     inkscape:window-x="0"
     inkscape:window-y="25"
     inkscape:window-maximized="0"
     inkscape:current-layer="svg4" />
  <path
     d="m 6.344,0.073 a 6.29,6.29 0 0 0 -6.29,6.29 6.29,6.29 0 0 0 6.29,6.288 6.29,6.29 0 0 0 6.29,-6.289 6.29,6.29 0 0 0 -6.29,-6.29 z M 6.326,1.009 A 5.407,5.407 0 0 1 11.733,6.416 5.407,5.407 0 0 1 6.326,11.823 5.407,5.407 0 0 1 0.92,6.416 5.407,5.407 0 0 1 6.326,1.01 Z M 4.202,3.161 C 4.18,3.161 4.159,3.173 4.139,3.195 4.104,3.204 4.078,3.219 4.073,3.245 L 3.376,7.26 2.499,4.917 C 2.479,4.865 2.303,4.964 2.105,5.14 L 2.031,5.207 C 1.833,5.383 1.689,5.567 1.709,5.619 l 1.35,3.604 c 0,0.002 0.003,0.003 0.004,0.005 0.047,0.083 0.182,0.184 0.353,0.255 L 3.5,9.517 C 3.72,9.608 3.91,9.612 3.925,9.526 L 4.873,4.073 h 5.388 c 0.088,0 0.159,-0.183 0.159,-0.412 V 3.574 c 0,-0.228 -0.071,-0.412 -0.16,-0.412 H 4.203 Z m 2.285,2.105 c -0.009,0 -0.02,0 -0.031,0.003 -0.07,0.018 -0.193,0.104 -0.314,0.225 l -0.06,0.06 C 5.92,5.716 5.822,5.879 5.863,5.92 L 6.945,7.002 5.863,8.083 C 5.823,8.124 5.92,8.287 6.081,8.449 L 6.142,8.51 C 6.304,8.672 6.467,8.769 6.508,8.728 L 7.589,7.646 8.672,8.728 C 8.712,8.768 8.876,8.672 9.037,8.51 L 9.097,8.449 C 9.259,8.287 9.357,8.124 9.316,8.083 L 8.234,7.002 9.316,5.92 C 9.356,5.879 9.259,5.716 9.098,5.554 L 9.038,5.494 C 8.876,5.332 8.713,5.234 8.672,5.275 L 7.589,6.357 6.508,5.275 A 0.033,0.033 0 0 0 6.487,5.266 Z"
     id="path2"
     inkscape:connector-curvature="0"
     style="fill:#2ca02c" />
</svg>

<svg xmlns="http://www.w3.org/2000/svg" width="48" height="48" viewBox="0 0 12.7 12.7"><path fill="#2ca02c" d="M6.34.07a6.29 6.29 0 0 0-6.29 6.3 6.29 6.29 0 0 0 6.3 6.28 6.29 6.29 0 0 0 6.28-6.29A6.29 6.29 0 0 0 6.34.07zm-.01.94a5.4 5.4 0 0 1 5.4 5.4 5.4 5.4 0 0 1-5.4 5.41 5.4 5.4 0 0 1-5.41-5.4A5.4 5.4 0 0 1 6.32 1zM4.2 3.16c-.02 0-.04.01-.06.04-.04 0-.06.02-.07.05l-.7 4.01-.87-2.34c-.02-.06-.2.04-.4.22l-.07.07c-.2.17-.34.36-.32.4l1.35 3.61c.05.1.18.2.36.26l.08.04c.22.09.41.1.42 0l.95-5.45h5.4c.08 0 .15-.18.15-.4v-.1c0-.22-.07-.4-.16-.4H4.2zm2.29 2.1h-.03a.9.9 0 0 0-.32.23l-.06.06c-.16.17-.26.33-.22.37L6.95 7 5.86 8.08c-.04.04.06.2.22.37l.06.06c.16.16.33.26.37.22l1.08-1.08 1.08 1.08c.04.04.2-.06.37-.22l.06-.06c.16-.16.26-.33.22-.37L8.23 7l1.09-1.08c.04-.04-.06-.2-.22-.37l-.06-.06c-.16-.16-.33-.26-.37-.21L7.6 6.36 6.5 5.28a.03.03 0 0 0-.02-.01z"/></svg>
